src/home/img/category-topic-view-clip-a.svg

<svg height="51" viewBox="0 0 510 51" width="510" xmlns="http://www.w3.org/2000/svg"><g fill="none" fill-rule="evenodd"><g fill="#1851be"><ellipse cx="25" cy="25.5" opacity=".24" rx="25" ry="25.5"/><path d="m123.124037 16.6694215c2.85271 0 5.165289 2.3125788 5.165289 5.1652892 0 2.8527105-2.312579 5.1652893-5.165289 5.1652893h-43.9587477c-2.8527105 0-5.1652893-2.3125788-5.1652893-5.1652893 0-2.8527104 2.3125788-5.1652892 5.1652893-5.1652892zm84.606741 0c2.852711 0 5.165289 2.3125788 5.165289 5.1652892 0 2.8527105-2.312578 5.1652893-5.165289 5.1652893h-67.225601c-2.852711 0-5.165289-2.3125788-5.165289-5.1652893 0-2.8527104 2.312578-5.1652892 5.165289-5.1652892zm112.103933-14.6694215c2.85271 0 5.165289 2.31257877 5.165289 5.16528926 0 2.85271044-2.312579 5.16528924-5.165289 5.16528924h-240.6694217c-2.8527105 0-5.1652893-2.3125788-5.1652893-5.16528924 0-2.85271049 2.3125788-5.16528926 5.1652893-5.16528926z" opacity=".897"/><rect height="18" rx="9" width="18" x="492" y="2"/><rect height="12" opacity=".164" rx="5" width="32" x="447" y="5"/><rect height="7" opacity=".158" rx="3" width="30" x="96" y="41"/></g><rect fill="#f84f77" height="14" rx="5" width="14" x="74" y="37"/></g></svg>

<svg xmlns="http://www.w3.org/2000/svg" width="510" height="51" viewBox="0 0 510 51">
  <g fill="none" fill-rule="evenodd">
    <ellipse cx="25" cy="25.5" fill="#1851BE" opacity=".24" rx="25" ry="25.5"/>
    <path fill="#1851BE" d="M123.124037,16.6694215 C125.976747,16.6694215 128.289326,18.9820003 128.289326,21.8347107 C128.289326,24.6874212 125.976747,27 123.124037,27 L79.1652893,27 C76.3125788,27 74,24.6874212 74,21.8347107 C74,18.9820003 76.3125788,16.6694215 79.1652893,16.6694215 L123.124037,16.6694215 Z M207.730778,16.6694215 C210.583489,16.6694215 212.896067,18.9820003 212.896067,21.8347107 C212.896067,24.6874212 210.583489,27 207.730778,27 L207.730778,27 L140.505177,27 C137.652466,27 135.339888,24.6874212 135.339888,21.8347107 C135.339888,18.9820003 137.652466,16.6694215 140.505177,16.6694215 L140.505177,16.6694215 Z M319.834711,2 C322.687421,2 325,4.31257877 325,7.16528926 C325,10.0179997 322.687421,12.3305785 319.834711,12.3305785 L79.1652893,12.3305785 C76.3125788,12.3305785 74,10.0179997 74,7.16528926 C74,4.31257877 76.3125788,2 79.1652893,2 L319.834711,2 Z" opacity=".897"/>
    <rect width="18" height="18" x="492" y="2" fill="#1851BE" rx="9"/>
    <rect width="32" height="12" x="447" y="5" fill="#1851BE" opacity=".164" rx="5"/>
    <rect width="30" height="7" x="96" y="41" fill="#1851BE" opacity=".158" rx="3"/>
    <rect width="14" height="14" x="74" y="37" fill="#F84F77" rx="5"/>
  </g>
</svg>
